assets/binoculars.svg

<svg xmlns="http://www.w3.org/2000/svg" fill="none" viewBox="0 0 28 28">
  <path fill="#2A2238" d="M4 2.8c0-.74261.31607-1.4548.87868-1.979899C5.44129.294999 6.20435 0 7 0h2c.79565 0 1.5587.294999 2.1213.820101C11.6839 1.3452 12 2.05739 12 2.8v4.66667h4V2.8c0-.74261.3161-1.4548.8787-1.979899C17.4413.294999 18.2044 0 19 0h2c.7956 0 1.5587.294999 2.1213.820101C23.6839 1.3452 24 2.05739 24 2.8v4.4464c0 .17319.0516.34296.1491.49032s.237.26649.4029.34408l1.79.8344c.4984.23265.9174.59024 1.2103 1.0327.2928.4425.4479.9523.4477 1.4724V25.2c0 .7426-.3161 1.4548-.8787 1.9799C26.5587 27.705 25.7956 28 25 28h-6c-.7956 0-1.5587-.295-2.1213-.8201C16.3161 26.6548 16 25.9426 16 25.2v-5.6c-.0002-.1226.0254-.2441.0755-.3575.0501-.1134.1237-.2165.2165-.3033L18 17.3469v-1.4802c0-.2476-.1054-.485-.2929-.66-.1875-.175-.4419-.2734-.7071-.2734h-6c-.2652 0-.5196.0984-.7071.2734s-.2929.4124-.2929.66v1.4802l1.708 1.5923c.0928.0868.1664.1899.2165.3033.0501.1134.0757.2349.0755.3575v5.6c0 .7426-.3161 1.4548-.8787 1.9799C10.5587 27.705 9.79565 28 9 28H3c-.79565 0-1.55871-.295-2.12132-.8201C.316071 26.6548 0 25.9426 0 25.2V11.4203C.00001883 10.9.155345 10.39.448556 9.94755.741768 9.50507 1.16127 9.14759 1.66 8.9152l1.788-.8344c.16589-.07759.30539-.19672.40287-.34408.09749-.14736.14912-.31713.14913-.49032V2.8Zm3-.93333c-.26522 0-.51957.09833-.70711.27336C6.10536 2.31507 6 2.55246 6 2.8v.93333h4V2.8c0-.24754-.10536-.48493-.29289-.65997C9.51957 1.965 9.26522 1.86667 9 1.86667H7ZM10 5.6H6v1.6464c-.00002.52027-.15535 1.03024-.44856 1.47272S4.83873 9.51908 4.34 9.75147l-1.788.83443c-.16589.0776-.30539.1967-.40287.3441-.09749.1473-.14912.3171-.14913.4903V22.4h8v-2.4136l-1.708-1.5923c-.0928-.0868-.16636-.1899-.21646-.3032-.05011-.1134-.07577-.2349-.07554-.3576v-1.8666c0-.7426.31607-1.4548.87868-1.9799.56261-.5251 1.32572-.8201 2.12132-.8201h6c.7956 0 1.5587.295 2.1213.8201.5626.5251.8787 1.2373.8787 1.9799v1.8666c.0002.1227-.0254.2442-.0755.3576-.0501.1133-.1237.2164-.2165.3032L18 19.9864V22.4h8V11.4203c0-.1732-.0516-.343-.1491-.4903-.0975-.1474-.237-.2665-.4029-.3441l-1.79-.83443c-.4984-.23265-.9174-.59024-1.2103-1.0327-.2928-.44246-.4479-.9523-.4477-1.47237V5.6h-4v2.8c0 .24754-.1054.48493-.2929.65997-.1875.17503-.4419.27336-.7071.27336h-6c-.2652 0-.5196-.09833-.7071-.27336C10.1054 8.88493 10 8.64754 10 8.4V5.6Zm8-1.86667h4V2.8c0-.24754-.1054-.48493-.2929-.65997-.1875-.17503-.4419-.27336-.7071-.27336h-2c-.2652 0-.5196.09833-.7071.27336C18.1054 2.31507 18 2.55246 18 2.8v.93333Zm8 20.53337h-8V25.2c0 .2475.1054.4849.2929.66.1875.175.4419.2733.7071.2733h6c.2652 0 .5196-.0983.7071-.2733.1875-.1751.2929-.4125.2929-.66v-.9333Zm-16 0H2V25.2c0 .2475.10536.4849.29289.66.18754.175.44189.2733.70711.2733h6c.26522 0 .51957-.0983.70711-.2733.18753-.1751.29289-.4125.29289-.66v-.9333Z"/>
</svg>

<svg width="28" height="28" viewBox="0 0 28 28" fill="none" xmlns="http://www.w3.org/2000/svg">
<path d="M4 2.8C4 2.05739 4.31607 1.3452 4.87868 0.820101C5.44129 0.294999 6.20435 0 7 0H9C9.79565 0 10.5587 0.294999 11.1213 0.820101C11.6839 1.3452 12 2.05739 12 2.8V7.46667H16V2.8C16 2.05739 16.3161 1.3452 16.8787 0.820101C17.4413 0.294999 18.2044 0 19 0H21C21.7956 0 22.5587 0.294999 23.1213 0.820101C23.6839 1.3452 24 2.05739 24 2.8V7.2464C24 7.41959 24.0516 7.58936 24.1491 7.73672C24.2466 7.88408 24.3861 8.00321 24.552 8.0808L26.342 8.9152C26.8404 9.14785 27.2594 9.50544 27.5523 9.9479C27.8451 10.3904 28.0002 10.9002 28 11.4203V25.2C28 25.9426 27.6839 26.6548 27.1213 27.1799C26.5587 27.705 25.7956 28 25 28H19C18.2044 28 17.4413 27.705 16.8787 27.1799C16.3161 26.6548 16 25.9426 16 25.2V19.6C15.9998 19.4774 16.0254 19.3559 16.0755 19.2425C16.1256 19.1291 16.1992 19.026 16.292 18.9392L18 17.3469V15.8667C18 15.6191 17.8946 15.3817 17.7071 15.2067C17.5196 15.0317 17.2652 14.9333 17 14.9333H11C10.7348 14.9333 10.4804 15.0317 10.2929 15.2067C10.1054 15.3817 10 15.6191 10 15.8667V17.3469L11.708 18.9392C11.8008 19.026 11.8744 19.1291 11.9245 19.2425C11.9746 19.3559 12.0002 19.4774 12 19.6V25.2C12 25.9426 11.6839 26.6548 11.1213 27.1799C10.5587 27.705 9.79565 28 9 28H3C2.20435 28 1.44129 27.705 0.87868 27.1799C0.316071 26.6548 0 25.9426 0 25.2V11.4203C1.883e-05 10.9 0.155345 10.39 0.448556 9.94755C0.741768 9.50507 1.16127 9.14759 1.66 8.9152L3.448 8.0808C3.61389 8.00321 3.75339 7.88408 3.85087 7.73672C3.94836 7.58936 3.99999 7.41959 4 7.2464V2.8ZM7 1.86667C6.73478 1.86667 6.48043 1.965 6.29289 2.14003C6.10536 2.31507 6 2.55246 6 2.8V3.73333H10V2.8C10 2.55246 9.89464 2.31507 9.70711 2.14003C9.51957 1.965 9.26522 1.86667 9 1.86667H7ZM10 5.6H6V7.2464C5.99998 7.76667 5.84465 8.27664 5.55144 8.71912C5.25823 9.1616 4.83873 9.51908 4.34 9.75147L2.552 10.5859C2.38611 10.6635 2.24661 10.7826 2.14913 10.93C2.05164 11.0773 2.00001 11.2471 2 11.4203V22.4H10V19.9864L8.292 18.3941C8.1992 18.3073 8.12564 18.2042 8.07554 18.0909C8.02543 17.9775 7.99977 17.856 8 17.7333V15.8667C8 15.1241 8.31607 14.4119 8.87868 13.8868C9.44129 13.3617 10.2044 13.0667 11 13.0667H17C17.7956 13.0667 18.5587 13.3617 19.1213 13.8868C19.6839 14.4119 20 15.1241 20 15.8667V17.7333C20.0002 17.856 19.9746 17.9775 19.9245 18.0909C19.8744 18.2042 19.8008 18.3073 19.708 18.3941L18 19.9864V22.4H26V11.4203C26 11.2471 25.9484 11.0773 25.8509 10.93C25.7534 10.7826 25.6139 10.6635 25.448 10.5859L23.658 9.75147C23.1596 9.51882 22.7406 9.16123 22.4477 8.71877C22.1549 8.27631 21.9998 7.76647 22 7.2464V5.6H18V8.4C18 8.64754 17.8946 8.88493 17.7071 9.05997C17.5196 9.235 17.2652 9.33333 17 9.33333H11C10.7348 9.33333 10.4804 9.235 10.2929 9.05997C10.1054 8.88493 10 8.64754 10 8.4V5.6ZM18 3.73333H22V2.8C22 2.55246 21.8946 2.31507 21.7071 2.14003C21.5196 1.965 21.2652 1.86667 21 1.86667H19C18.7348 1.86667 18.4804 1.965 18.2929 2.14003C18.1054 2.31507 18 2.55246 18 2.8V3.73333ZM26 24.2667H18V25.2C18 25.4475 18.1054 25.6849 18.2929 25.86C18.4804 26.035 18.7348 26.1333 19 26.1333H25C25.2652 26.1333 25.5196 26.035 25.7071 25.86C25.8946 25.6849 26 25.4475 26 25.2V24.2667ZM10 24.2667H2V25.2C2 25.4475 2.10536 25.6849 2.29289 25.86C2.48043 26.035 2.73478 26.1333 3 26.1333H9C9.26522 26.1333 9.51957 26.035 9.70711 25.86C9.89464 25.6849 10 25.4475 10 25.2V24.2667Z" fill="#2A2238"/>
</svg>
